icon-svg/yamaha-rx-v773.svg

<svg xmlns="http://www.w3.org/2000/svg" viewBox="0 0 24 24"><path fill="#44739e" d="M4.309 14.435a1.286 1.286 0 1 0-1.286-1.285 1.286 1.286 0 0 0 1.286 1.285m2.426-.145a.353.353 0 1 0-.352-.353.353.353 0 0 0 .352.353M3.531 9.844h-.016a.8.8 0 0 0-.237.073l-.021.062h-.02v.042h-.021a.2.2 0 0 0-.008.118l-.006.031a.329.329 0 1 0 .329-.329Zm4.572-.945h7.591c.23 0 .415.185.415.415v.72c0 .23-.185.415-.415.415H8.103a.414.414 0 0 1-.415-.415v-.72c0-.23.185-.415.415-.415m13.888-.248a1.5 1.5 0 0 0-.021-.458l-.021-.063a4 4 0 0 0-.623-.021H2.425c-.092 0-.279-.025-.333.021l-.062.021a4 4 0 0 0-.021.645v5.849a1.5 1.5 0 0 0 .021.458l.021.062a5 5 0 0 0 .972.024v.709h2.879v-.71h12.196l.008.021v.689h2.878v-.71h.882a.5.5 0 0 1 .1-.083 4 4 0 0 0 .021-.645Zm-.125 6.41H2.134v-3.999h19.732Zm0-5.869v1.748H2.134V8.234h19.711a6 6 0 0 1 .021.958M10.64 12.411a.36.36 0 0 1-.361.361.36.36 0 0 1-.36-.361.36.36 0 0 1 .36-.361.36.36 0 0 1 .361.361m4.44 1.849h2.373a.266.266 0 1 0 0-.531H15.08a.266.266 0 1 0 0 .531m4.625.268a1.286 1.286 0 1 0-1.286-1.285 1.286 1.286 0 0 0 1.286 1.285m-6.331-2.006h.026v.042h.021l.021.062.045.015.017.026a.361.361 0 1 0 .256-.614.35.35 0 0 0-.277.139l-.042.017-.021.062h-.02v.042h-.021v.063h-.021v.02h.021Zm-1.062.104h.007a.35.35 0 0 0 .278.141.361.361 0 0 0 0-.722.356.356 0 0 0-.342.267h-.005a.2.2 0 0 0-.012.085v.009a.35.35 0 0 0 .069.2Zm-.874.153a.361.361 0 1 0-.361-.361.36.36 0 0 0 .361.361"/></svg>

<svg xmlns="http://www.w3.org/2000/svg" width="24" height="24" viewBox="0 0 24 24">
  <path id="Colore_riempimento_1" fill="#44739e" data-name="Colore riempimento 1" class="cls-1" d="M 4.307,14.437 A 1.286,1.286 0 1 0 3.021,13.151 1.286,1.286 0 0 0 4.307,14.437 Z M 6.734,14.292 A 0.353,0.353 0 1 0 6.381,13.939 0.353,0.353 0 0 0 6.734,14.292 Z M 3.529,9.845 H 3.513 A 0.747,0.747 0 0 0 3.276,9.918 L 3.255,9.98 h -0.02 v 0.042 H 3.214 A 0.218,0.218 0 0 0 3.206,10.14 0.284,0.284 0 0 0 3.2,10.171 0.329,0.329 0 1 0 3.529,9.842 Z M 8.1019998,8.8990002 H 15.695 c 0.22991,0 0.415,0.18509 0.415,0.415 V 10.035 c 0,0.22991 -0.18509,0.415 -0.415,0.415 H 8.1019998 c -0.22991,0 -0.415,-0.18509 -0.415,-0.415 V 9.3140002 c 0,-0.22991 0.18509,-0.415 0.415,-0.415 z M 21.994,8.651 A 1.513,1.513 0 0 0 21.973,8.193 L 21.952,8.13 A 4.049,4.049 0 0 0 21.328,8.109 H 2.422 C 2.33,8.109 2.143,8.084 2.089,8.13 L 2.027,8.151 A 4.2,4.2 0 0 0 2.006,8.796 v 5.851 a 1.515,1.515 0 0 0 0.021,0.458 l 0.021,0.062 a 5.17,5.17 0 0 0 0.973,0.024 V 15.9 H 5.9 v -0.71 h 12.2 a 0.061,0.061 0 0 0 0.008,0.021 V 15.9 h 2.878 v -0.71 h 0.883 a 0.493,0.493 0 0 1 0.1,-0.083 4.2,4.2 0 0 0 0.021,-0.645 z m -0.125,6.412 H 2.131 v -4 h 19.738 z m 0,-5.871 v 1.749 H 2.131 V 8.234 h 19.717 a 6.156,6.156 0 0 1 0.021,0.958 z M 10.64,12.412 A 0.361,0.361 0 0 1 10.279,12.773 0.361,0.361 0 0 1 9.9180003,12.412 0.361,0.361 0 0 1 10.279,12.051 0.361,0.361 0 0 1 10.64,12.412 Z m 4.441,1.85 h 2.373 a 0.266,0.266 0 1 0 0,-0.531 h -2.373 a 0.266,0.266 0 1 0 0,0.531 z m 4.626,0.268 a 1.286,1.286 0 1 0 -1.286,-1.286 1.286,1.286 0 0 0 1.286,1.286 z M 13.374,12.523 H 13.4 v 0.042 h 0.021 l 0.021,0.062 0.045,0.015 c 0.007,0.008 0.01,0.019 0.017,0.026 v 0 a 0.361,0.361 0 1 0 0.256,-0.614 0.352,0.352 0 0 0 -0.277,0.139 0.412,0.412 0 0 1 -0.042,0.017 L 13.42,12.272 H 13.4 v 0.042 h -0.021 v 0.063 h -0.021 v 0.02 h 0.021 z m -1.062,0.104 h 0.007 a 0.352,0.352 0 0 0 0.278,0.141 0.361,0.361 0 0 0 0,-0.722 0.356,0.356 0 0 0 -0.342,0.267 H 12.25 a 0.214,0.214 0 0 0 -0.012,0.085 v 0.009 a 0.35,0.35 0 0 0 0.069,0.2 z m -0.874,0.153 a 0.361,0.361 0 1 0 -0.361,-0.361 0.361,0.361 0 0 0 0.361,0.361 z"/>
</svg>
